packages/icons/src/components/Icon/assets/default-solid/doc.svg

<svg width="20" height="20" viewBox="0 0 20 20" fill="none" xmlns="http://www.w3.org/2000/svg">
<path fill-rule="evenodd" clip-rule="evenodd" d="M4.5 18H15.5C16.3284 18 17 17.3284 17 16.5L17 3.50001C17 2.67158 16.3289 2 15.5005 2.00001L4.5 2C3.67157 2 3 2.67157 3 3.5L3 16.5C3 17.3284 3.67157 18 4.5 18ZM6.24997 5.5C6.24997 5.08579 6.58576 4.75 6.99997 4.75H10.4635C10.8777 4.75 11.2135 5.08579 11.2135 5.5C11.2135 5.91421 10.8777 6.25 10.4635 6.25H6.99997C6.58576 6.25 6.24997 5.91421 6.24997 5.5ZM6.99997 7.75C6.58576 7.75 6.24997 8.08579 6.24997 8.5C6.24997 8.91421 6.58576 9.25 6.99997 9.25H12.4687C12.8829 9.25 13.2187 8.91421 13.2187 8.5C13.2187 8.08579 12.8829 7.75 12.4687 7.75H6.99997ZM6.24997 11.5C6.24997 11.0858 6.58576 10.75 6.99997 10.75H12.4687C12.8829 10.75 13.2187 11.0858 13.2187 11.5C13.2187 11.9142 12.8829 12.25 12.4687 12.25H6.99997C6.58576 12.25 6.24997 11.9142 6.24997 11.5ZM6.99997 13.75C6.58576 13.75 6.24997 14.0858 6.24997 14.5C6.24997 14.9142 6.58576 15.25 6.99997 15.25H9.73434C10.1486 15.25 10.4843 14.9142 10.4843 14.5C10.4843 14.0858 10.1486 13.75 9.73434 13.75H6.99997Z" fill="#727683"/>
</svg>

<svg xmlns="http://www.w3.org/2000/svg" width="20" height="20" fill="none" viewBox="0 0 20 20">
    <path fill="#727683" fill-rule="evenodd" d="M4.5 18h11a1.5 1.5 0 0 0 1.5-1.5v-13A1.5 1.5 0 0 0 15.5 2h-11A1.5 1.5 0 0 0 3 3.5v13A1.5 1.5 0 0 0 4.5 18M6.25 5.5A.75.75 0 0 1 7 4.75h3.464a.75.75 0 0 1 0 1.5H7a.75.75 0 0 1-.75-.75M7 7.75a.75.75 0 0 0 0 1.5h5.469a.75.75 0 0 0 0-1.5zm-.75 3.75a.75.75 0 0 1 .75-.75h5.469a.75.75 0 0 1 0 1.5H7a.75.75 0 0 1-.75-.75M7 13.75a.75.75 0 0 0 0 1.5h2.734a.75.75 0 1 0 0-1.5z" clip-rule="evenodd"/>
</svg>
